;FLAVOR:Marlin
;TIME:7363
;Filament used: 4.96688m
;Layer height: 0.2
;MINX:75.405
;MINY:80.75
;MINZ:0.2
;MAXX:144.574
;MAXY:139.25
;MAXZ:39
;Generated with Cura_SteamEngine 4.13.1
M140 S70
M105
M190 S70
M104 S230
M105
M109 S230
M82 ;absolute extrusion mode
; Ender 3 Custom Start G-code
G92 E0 ; Reset Extruder
G28 ; Home all axes
G1 Z2.0 F3000 ; Move Z Axis up little to prevent scratching of Heat Bed
G1 X0.1 Y20 Z0.3 F5000.0 ; Move to start position
G1 X0.1 Y200.0 Z0.3 F1500.0 E15 ; Draw the first line
G1 X0.4 Y200.0 Z0.3 F5000.0 ; Move to side a little
G1 X0.4 Y20 Z0.3 F1500.0 E30 ; Draw the second line
G92 E0 ; Reset Extruder
G1 Z2.0 F3000 ; Move Z Axis up little to prevent scratching of Heat Bed
G1 X5 Y20 Z0.3 F5000.0 ; Move over to prevent blob squish
G92 E0
G92 E0
G1 F1500 E-6.5
;LAYER_COUNT:195
;LAYER:0
M107
G0 F6000 X79.311 Y86.495 Z0.2
;TYPE:SKIRT
G1 F1500 E0
G1 F900 X80.054 Y85.906 E0.03942
G1 X80.845 Y85.382 E0.07887
G1 X81.676 Y84.926 E0.11828
G1 X82.544 Y84.541 E0.15775
G1 X83.169 Y84.316 E0.18537
G1 X83.588 Y84.179 E0.2037
G1 X85.493 Y83.593 E0.28656
G1 X87.871 Y82.788 E0.39094
G1 X90.939 Y81.641 E0.52711
G1 X91.239 Y81.524 E0.5405
G1 X92.137 Y81.218 E0.57994
G1 X93.057 Y80.989 E0.61936
G1 X93.993 Y80.838 E0.65878
G1 X94.929 Y80.767 E0.6978
G1 X95.322 Y80.756 E0.71415
G1 X95.869 Y80.75 E0.73689
G1 X99.879 Y80.75 E0.90361
G1 X100.743 Y80.761 E0.93953
G1 X101.69 Y80.815 E0.97897
G1 X102.629 Y80.948 E1.0184
G1 X103.259 Y81.083 E1.04518
G1 X103.636 Y81.175 E1.06132
G1 X106.172 Y81.759 E1.16951
G1 X108.634 Y82.255 E1.27393
G1 X111.089 Y82.674 E1.37747
G1 X113.549 Y83.025 E1.48078
G1 X116.085 Y83.314 E1.5869
G1 X118.565 Y83.526 E1.69038
G1 X121.092 Y83.669 E1.79561
G1 X123.595 Y83.741 E1.89971
G1 X124.937 Y83.75 E1.95551
G1 X130.195 Y83.75 E2.17411
G1 X131.205 Y83.752 E2.2161
G1 X131.448 Y83.75 E2.2262
G1 X132.631 Y83.751 E2.27539
G1 X133.333 Y83.761 E2.30458
G1 X134.28 Y83.815 E2.34401
G1 X135.219 Y83.948 E2.38344
G1 X136.144 Y84.159 E2.42289
G1 X137.047 Y84.448 E2.4623
G1 X137.923 Y84.812 E2.50174
G1 X138.765 Y85.248 E2.54116
G1 X139.568 Y85.754 E2.58062
G1 X140.325 Y86.326 E2.62007
G1 X141.031 Y86.959 E2.65949
G1 X141.904 Y87.916 E2.71335
G1 X142.034 Y88.076 E2.72192
G1 X142.601 Y88.837 E2.76137
G1 X143.101 Y89.642 E2.80077
G1 X143.532 Y90.487 E2.84021
G1 X143.89 Y91.365 E2.87963
G1 X144.173 Y92.271 E2.91909
G1 X144.379 Y93.197 E2.95853
G1 X144.467 Y93.785 E2.98325
G1 X144.483 Y93.914 E2.98865
G1 X144.568 Y95.145 E3.03996
G1 X144.574 Y95.665 E3.06158
G1 X144.574 Y124.266 E4.25067
G1 X144.564 Y125.002 E4.28127
G1 X144.511 Y125.949 E4.3207
G1 X144.379 Y126.888 E4.36013
G1 X144.168 Y127.813 E4.39957
G1 X143.879 Y128.716 E4.43899
G1 X143.516 Y129.592 E4.47841
G1 X143.08 Y130.435 E4.51787
G1 X142.575 Y131.238 E4.55731
G1 X142.004 Y131.995 E4.59673
G1 X141.27 Y132.804 E4.64214
G1 X141.129 Y132.945 E4.65043
G1 X140.431 Y133.587 E4.68986
G1 X139.681 Y134.167 E4.72928
G1 X138.885 Y134.683 E4.76872
G1 X138.048 Y135.129 E4.80815
G1 X137.176 Y135.504 E4.84761
G1 X136.276 Y135.804 E4.88705
G1 X135.355 Y136.027 E4.92645
G1 X134.417 Y136.171 E4.96591
G1 X133.554 Y136.234 E5.00188
G1 X133.164 Y136.244 E5.0181
G1 X132.617 Y136.25 E5.04084
G1 X130.143 Y136.248 E5.1437
G1 X129.9 Y136.25 E5.1538
G1 X124.957 Y136.25 E5.35931
G1 X122.359 Y136.287 E5.46733
G1 X119.854 Y136.393 E5.57157
G1 X117.336 Y136.572 E5.67652
G1 X114.853 Y136.818 E5.78026
G1 X112.378 Y137.135 E5.884
G1 X109.876 Y137.528 E5.9893
G1 X107.417 Y137.985 E6.09328
G1 X103.949 Y138.75 E6.24093
G1 X103.205 Y138.929 E6.27274
G1 X102.275 Y139.111 E6.31214
G1 X101.022 Y139.231 E6.36447
G1 X100.643 Y139.242 E6.38024
G1 X99.942 Y139.25 E6.40938
G1 X95.853 Y139.249 E6.57938
G1 X95.154 Y139.239 E6.60845
G1 X94.207 Y139.185 E6.64788
G1 X93.268 Y139.052 E6.68731
G1 X92.039 Y138.753 E6.7399
G1 X91.371 Y138.529 E6.76919
G1 X91.006 Y138.393 E6.78538
G1 X88.995 Y137.619 E6.87497
G1 X86.614 Y136.78 E6.97993
G1 X84.24 Y136.017 E7.0836
G1 X83.357 Y135.745 E7.12201
G1 X82.463 Y135.428 E7.16145
G1 X81.598 Y135.037 E7.20091
G1 X80.77 Y134.574 E7.24035
G1 X79.984 Y134.043 E7.27979
G1 X79.246 Y133.449 E7.31918
G1 X78.56 Y132.794 E7.35861
G1 X77.931 Y132.083 E7.39808
G1 X77.365 Y131.322 E7.43751
G1 X76.865 Y130.516 E7.47694
G1 X76.434 Y129.671 E7.51638
G1 X76.076 Y128.793 E7.5558
G1 X75.794 Y127.887 E7.59525
G1 X75.589 Y126.961 E7.63468
G1 X75.462 Y126.021 E7.67412
G1 X75.42 Y125.329 E7.70294
G1 X75.41 Y124.995 E7.71683
G1 X75.405 Y124.658 E7.73084
G1 X75.406 Y95.505 E8.94288
G1 X75.416 Y94.84 E8.97053
G1 X75.47 Y93.893 E9.00997
G1 X75.604 Y92.954 E9.0494
G1 X75.817 Y92.03 E9.08883
G1 X76.106 Y91.126 E9.12829
G1 X76.471 Y90.251 E9.1677
G1 X76.908 Y89.409 E9.20714
G1 X77.414 Y88.607 E9.24657
G1 X77.986 Y87.851 E9.28598
G1 X78.62 Y87.145 E9.32543
G1 X79.311 Y86.495 E9.36487
G0 F6000 X79.797 Y86.739
G1 F900 X80.535 Y86.178 E9.40341
G1 X81.319 Y85.683 E9.44196
G1 X82.143 Y85.257 E9.48053
G1 X83.324 Y84.791 E9.53331
G1 X83.929 Y84.595 E9.55975
G1 X85.696 Y84.053 E9.63659
G1 X88.049 Y83.256 E9.73988
G1 X91.043 Y82.136 E9.87278
G1 X91.42 Y81.99 E9.88959
G1 X92.298 Y81.692 E9.92814
G1 X93.198 Y81.47 E9.96667
G1 X94.114 Y81.327 E10.00522
G1 X94.946 Y81.266 E10.0399
G1 X95.329 Y81.256 E10.05583
G1 X95.869 Y81.25 E10.07828
G1 X99.879 Y81.25 E10.245
G1 X100.736 Y81.261 E10.28063
G1 X101.661 Y81.314 E10.31915
G1 X102.579 Y81.447 E10.35772
G1 X103.141 Y81.569 E10.38163
G1 X103.492 Y81.655 E10.39665
G1 X106.067 Y82.248 E10.50651
G1 X108.523 Y82.743 E10.61067
G1 X111.04 Y83.172 E10.71682
G1 X113.497 Y83.522 E10.82001
G1 X116.018 Y83.81 E10.9255
G1 X118.532 Y84.025 E11.0304
G1 X121.048 Y84.167 E11.13517
G1 X123.623 Y84.241 E11.24227
G1 X124.934 Y84.25 E11.29678
G1 X130.194 Y84.25 E11.51546
G1 X131.208 Y84.252 E11.55762
G1 X131.452 Y84.25 E11.56776
G1 X132.624 Y84.251 E11.61649
G1 X133.326 Y84.261 E11.64568
G1 X134.252 Y84.314 E11.68424
G1 X135.169 Y84.447 E11.72276
G1 X136.072 Y84.658 E11.76132
G1 X136.953 Y84.947 E11.79986
G1 X137.806 Y85.31 E11.83841
G1 X138.625 Y85.745 E11.87696
G1 X139.403 Y86.249 E11.9155
G1 X140.135 Y86.819 E11.95407
G1 X140.815 Y87.449 E11.99261
G1 X141.516 Y88.231 E12.03627
G1 X141.646 Y88.391 E12.04484
G1 X142.199 Y89.135 E12.08339
G1 X142.686 Y89.924 E12.12193
G1 X143.103 Y90.752 E12.16048
G1 X143.448 Y91.613 E12.19904
G1 X143.716 Y92.5 E12.23756
G1 X143.971 Y93.847 E12.29456
G1 X143.987 Y93.976 E12.29996
G1 X144.068 Y95.152 E12.34897
G1 X144.074 Y95.665 E12.3703
G1 X144.074 Y124.259 E13.5591
G1 X144.064 Y124.995 E13.5897
G1 X144.011 Y125.921 E13.62827
G1 X143.879 Y126.838 E13.66678
G1 X143.669 Y127.741 E13.70533
G1 X143.381 Y128.623 E13.7439
G1 X143.018 Y129.476 E13.78244
G1 X142.584 Y130.295 E13.82098
G1 X142.08 Y131.073 E13.85952
G1 X141.511 Y131.805 E13.89806
G1 X140.916 Y132.45 E13.93455
G1 X140.775 Y132.591 E13.94284
G1 X140.092 Y133.218 E13.98138
G1 X139.357 Y133.784 E14.01995
G1 X138.577 Y134.284 E14.05847
G1 X137.756 Y134.715 E14.09702
G1 X136.901 Y135.073 E14.13556
G1 X136.018 Y135.357 E14.17412
G1 X135.114 Y135.563 E14.21267
G1 X134.196 Y135.691 E14.25121
G1 X133.537 Y135.734 E14.27866
G1 X133.157 Y135.744 E14.29447
G1 X132.617 Y135.75 E14.31692
G1 X130.14 Y135.748 E14.4199
G1 X129.896 Y135.75 E14.43004
G1 X124.95 Y135.75 E14.63568
G1 X122.331 Y135.787 E14.74457
G1 X119.831 Y135.893 E14.8486
G1 X117.325 Y136.071 E14.95305
G1 X114.772 Y136.324 E15.05971
G1 X112.307 Y136.639 E15.16303
G1 X109.783 Y137.036 E15.26926
G1 X107.333 Y137.491 E15.37286
G1 X103.851 Y138.26 E15.52111
G1 X103.089 Y138.443 E15.55369
G1 X102.179 Y138.62 E15.59223
G1 X101.002 Y138.732 E15.64139
G1 X100.636 Y138.742 E15.65661
G1 X99.942 Y138.75 E15.68547
G1 X95.86 Y138.749 E15.85518
G1 X95.161 Y138.739 E15.88424
G1 X94.236 Y138.686 E15.92276
G1 X93.318 Y138.553 E15.96132
G1 X92.185 Y138.274 E16.00984
G1 X91.544 Y138.06 E16.03793
G1 X91.185 Y137.927 E16.05385
G1 X89.13 Y137.136 E16.1454
G1 X86.786 Y136.31 E16.24872
G1 X84.382 Y135.537 E16.35371
G1 X83.504 Y135.267 E16.3919
G1 X82.63 Y134.956 E16.43047
G1 X81.786 Y134.571 E16.46904
G1 X80.979 Y134.115 E16.50757
G1 X80.214 Y133.591 E16.54612
G1 X79.497 Y133.004 E16.58465
G1 X78.834 Y132.356 E16.62319
G1 X78.228 Y131.654 E16.66175
G1 X77.686 Y130.902 E16.70029
G1 X77.21 Y130.107 E16.73881
G1 X76.804 Y129.273 E16.77737
G1 X76.472 Y128.407 E16.81593
G1 X76.216 Y127.516 E16.85448
G1 X76.037 Y126.606 E16.89303
G1 X75.92 Y125.314 E16.94697
G1 X75.91 Y124.98 E16.96086
G1 X75.905 Y124.658 E16.97425
G1 X75.906 Y95.512 E18.186
G1 X75.916 Y94.847 E18.21365
G1 X75.97 Y93.922 E18.25217
G1 X76.104 Y93.004 E18.29074
G1 X76.316 Y92.102 E18.32927
G1 X76.605 Y91.221 E18.36781
G1 X76.968 Y90.368 E18.40636
G1 X77.404 Y89.55 E18.44489
G1 X77.909 Y88.772 E18.48346
G1 X78.479 Y88.041 E18.52199
G1 X79.11 Y87.361 E18.56056
G1 X79.797 Y86.739 E18.59909
G0 F6000 X80.282 Y86.989
G1 F900 X81.015 Y86.457 E18.63675
G1 X81.791 Y85.992 E18.67436
G1 X82.606 Y85.597 E18.71201
G1 X83.48 Y85.267 E18.75085
G1 X84.075 Y85.073 E18.77687
G1 X85.833 Y84.533 E18.85333
G1 X88.226 Y83.723 E18.95836
G1 X91.241 Y82.596 E19.09218
G1 X91.601 Y82.456 E19.10824
G1 X92.459 Y82.166 E19.1459
G1 X93.338 Y81.952 E19.18351
G1 X94.234 Y81.817 E19.22118
G1 X94.963 Y81.766 E19.25156
G1 X95.335 Y81.756 E19.26704
G1 X95.869 Y81.75 E19.28924
G1 X99.879 Y81.75 E19.45595
G1 X100.729 Y81.761 E19.4913
G1 X101.632 Y81.814 E19.5289
G1 X102.528 Y81.946 E19.56656
G1 X103.022 Y82.054 E19.58758
G1 X103.399 Y82.146 E19.60371
G1 X105.968 Y82.738 E19.71332
G1 X108.444 Y83.237 E19.81833
G1 X110.955 Y83.665 E19.92423
G1 X113.436 Y84.019 E20.02842
G1 X115.958 Y84.306 E20.13395
G1 X118.495 Y84.523 E20.23981
G1 X121.042 Y84.667 E20.34587
G1 X123.605 Y84.741 E20.45248
G1 X124.93 Y84.75 E20.50756
G1 X130.193 Y84.75 E20.72637
G1 X131.21 Y84.752 E20.76866
G1 X131.455 Y84.75 E20.77884
G1 X132.617 Y84.751 E20.82715
G1 X133.319 Y84.761 E20.85634
G1 X134.223 Y84.814 E20.89399
G1 X135.118 Y84.946 E20.9316
G1 X135.999 Y85.157 E20.96927
G1 X136.857 Y85.445 E21.00689
G1 X137.687 Y85.807 E21.04454
G1 X138.481 Y86.242 E21.08218
G1 X139.234 Y86.744 E21.11981
G1 X139.94 Y87.311 E21.15745
G1 X140.593 Y87.938 E21.19509
G1 X141.128 Y88.546 E21.22876
G1 X141.258 Y88.706 E21.23733
G1 X141.797 Y89.434 E21.27499
G1 X142.271 Y90.205 E21.31262
G1 X142.674 Y91.016 E21.35027
G1 X143.004 Y91.859 E21.38791
G1 X143.258 Y92.728 E21.42555
G1 X143.475 Y93.908 E21.47543
G1 X143.491 Y94.037 E21.48083
G1 X143.568 Y95.159 E21.52759
G1 X143.574 Y95.665 E21.54863
G1 X143.574 Y124.252 E22.73714
G1 X143.564 Y124.988 E22.76774
G1 X143.512 Y125.892 E22.80539
G1 X143.38 Y126.788 E22.84304
G1 X143.17 Y127.668 E22.88065
G1 X142.882 Y128.527 E22.91832
G1 X142.521 Y129.357 E22.95595
G1 X142.087 Y130.151 E22.99357
G1 X141.585 Y130.905 E23.03123
G1 X141.018 Y131.611 E23.06888
G1 X140.563 Y132.097 E23.09655
G1 X140.422 Y132.238 E23.10484
G1 X139.754 Y132.849 E23.14248
G1 X139.035 Y133.399 E23.18012
G1 X138.27 Y133.883 E23.21775
G1 X137.465 Y134.298 E23.25541
G1 X136.627 Y134.641 E23.29305
G1 X135.762 Y134.908 E23.33069
G1 X134.877 Y135.098 E23.36832
G1 X133.979 Y135.208 E23.40594
G1 X133.52 Y135.234 E23.42505
G1 X133.151 Y135.244 E23.4404
G1 X132.617 Y135.25 E23.4626
G1 X130.138 Y135.248 E23.56566
G1 X129.893 Y135.25 E23.57585
G1 X124.943 Y135.25 E23.78165
G1 X122.338 Y135.287 E23.88996
G1 X119.775 Y135.396 E23.99661
G1 X117.273 Y135.573 E24.1009
G1 X114.733 Y135.825 E24.20701
G1 X112.237 Y136.144 E24.31163
G1 X109.685 Y136.545 E24.41903
G1 X107.255 Y136.997 E24.52179
G1 X103.717 Y137.778 E24.67243
G1 X102.972 Y137.957 E24.70428
G1 X102.083 Y138.129 E24.74193
G1 X100.982 Y138.232 E24.7879
G1 X100.63 Y138.242 E24.80254
G1 X99.942 Y138.25 E24.83115
G1 X95.867 Y138.249 E25.00057
G1 X95.168 Y138.239 E25.02963
G1 X94.265 Y138.186 E25.06724
G1 X93.369 Y138.054 E25.10489
G1 X92.331 Y137.796 E25.14936
G1 X91.717 Y137.591 E25.17627
G1 X91.365 Y137.46 E25.19189
G1 X89.339 Y136.68 E25.28214
G1 X86.925 Y135.83 E25.38855
G1 X84.524 Y135.058 E25.4934
G1 X83.651 Y134.789 E25.53138
G1 X82.798 Y134.485 E25.56903
G1 X81.975 Y134.106 E25.6067
G1 X81.189 Y133.657 E25.64433
G1 X80.446 Y133.14 E25.68197
G1 X79.752 Y132.559 E25.7196
G1 X79.111 Y131.92 E25.75723
G1 X78.529 Y131.226 E25.79488
G1 X78.011 Y130.484 E25.8325
G1 X77.56 Y129.699 E25.87014
G1 X77.18 Y128.877 E25.90779
G1 X76.874 Y128.025 E25.94543
G1 X76.645 Y127.149 E25.98307
G1 X76.493 Y126.257 E26.02069
G1 X76.42 Y125.299 E26.06064
G1 X76.41 Y124.965 E26.07453
G1 X76.405 Y124.658 E26.0873
G1 X76.406 Y95.52 E27.29871
G1 X76.416 Y94.855 E27.32636
G1 X76.47 Y93.951 E27.36401
G1 X76.603 Y93.056 E27.40163
G1 X76.814 Y92.175 E27.4393
G1 X77.103 Y91.317 E27.47694
G1 X77.466 Y90.488 E27.51456
G1 X77.901 Y89.694 E27.5522
G1 X78.404 Y88.941 E27.58985
G1 X78.972 Y88.236 E27.62749
G1 X79.599 Y87.584 E27.6651
G1 X80.282 Y86.989 E27.70276
G0 F6000 X95.911 Y92.75
G1 F900 X99.983 Y92.75 E27.87205
G1 X99.983 Y93.25 E27.89284
G1 X95.911 Y93.25 E28.06213
G1 X95.911 Y92.75 E28.08292
G0 F6000 X95.411 Y92.25
G1 F900 X100.482 Y92.25 E28.29375
G1 X100.483 Y93.75 E28.35611
G1 X95.411 Y93.75 E28.56698
G1 X95.411 Y92.25 E28.62934
G1 F1500 E22.12934
G0 F6000 X86.527 Y94.339
G0 X85.994 Y94.872
G0 X85.994 Y125.128
G0 X86.527 Y125.661
G0 X95.411 Y126.25
G1 F1500 E28.62934
G1 F900 X100.483 Y126.25 E28.84021
G1 X100.483 Y127.75 E28.90258
G1 X95.411 Y127.75 E29.11345
G1 X95.411 Y126.25 E29.17581
G0 F6000 X95.911 Y126.75
G1 F900 X99.983 Y126.75 E29.3451
G1 X99.983 Y127.25 E29.36589
G1 X95.911 Y127.25 E29.53518
G1 X95.911 Y126.75 E29.55597
G1 F1500 E23.05597
G0 F6000 X130.302 Y125.661
G0 X130.835 Y125.128
G0 X131.424 Y95.25
G1 F1500 E29.55597
G1 F900 X133.074 Y95.25 E29.62457
G1 X133.075 Y124.75 E30.85104
G1 X131.424 Y124.75 E30.91968
G1 X131.424 Y95.25 E32.14615
G0 F6000 X131.924 Y95.75
G1 F900 X132.574 Y95.75 E32.17317
G1 X132.575 Y124.25 E33.35806
G1 X131.924 Y124.25 E33.38513
G1 X131.924 Y95.75 E34.57002
G1 F1500 E28.07002
;MESH:SoporteMotor_Angulo.STL
G0 F6000 X95.236 Y110.137
G0 X97.366 Y110.507
G0 X94.418 Y112.755
;TYPE:WALL-INNER
G1 F1500 E34.57002
G1 F900 X94.905 Y112.71 E34.59035
G1 X95.358 Y112.59 E34.60984
G1 X95.797 Y112.382 E34.63003
G1 X96.197 Y112.099 E34.6504
G1 X96.533 Y111.761 E34.67022
G1 X96.802 Y111.375 E34.68978
G1 X97.004 Y110.938 E34.70979
G1 X97.128 Y110.465 E34.73012
G1 X97.17 Y109.997 E34.74966
G1 X97.125 Y109.507 E34.77012
G1 X97.002 Y109.057 E34.78951
G1 X96.799 Y108.619 E34.80958
G1 X96.514 Y108.217 E34.83007
G1 X96.176 Y107.882 E34.84986
G1 X95.793 Y107.614 E34.86929
G1 X95.353 Y107.409 E34.88947
G1 X94.879 Y107.287 E34.90982
G1 X94.412 Y107.245 E34.92931
G1 X93.924 Y107.29 E34.94969
G1 X93.472 Y107.41 E34.96913
G1 X93.034 Y107.616 E34.98925
G1 X92.63 Y107.902 E35.00983
G1 X92.295 Y108.242 E35.02968
G1 X92.029 Y108.622 E35.04896
G1 X91.825 Y109.06 E35.06905
G1 X91.699 Y109.537 E35.08956
G1 X91.66 Y110.003 E35.109
G1 X91.704 Y110.49 E35.12933
G1 X91.827 Y110.945 E35.14893
G1 X92.033 Y111.382 E35.16902
G1 X92.315 Y111.78 E35.18929
G1 X92.653 Y112.12 E35.20923
G1 X93.04 Y112.386 E35.22875
G1 X93.476 Y112.59 E35.24876
G1 X93.951 Y112.713 E35.26916
G1 X94.418 Y112.755 E35.28866
G0 F6000 X94.417 Y112.253
G1 F900 X94.817 Y112.216 E35.30536
G1 X95.186 Y112.118 E35.32123
G1 X95.544 Y111.949 E35.33769
G1 X95.873 Y111.716 E35.35445
G1 X96.148 Y111.439 E35.37068
G1 X96.367 Y111.125 E35.3866
G1 X96.532 Y110.768 E35.40295
G1 X96.634 Y110.379 E35.41967
G1 X96.668 Y109.998 E35.43557
G1 X96.631 Y109.596 E35.45235
G1 X96.531 Y109.229 E35.46817
G1 X96.365 Y108.871 E35.48457
G1 X96.131 Y108.542 E35.50136
G1 X95.854 Y108.267 E35.51759
G1 X95.542 Y108.049 E35.53341
G1 X95.183 Y107.882 E35.54987
G1 X94.793 Y107.781 E35.56662
G1 X94.413 Y107.747 E35.58248
G1 X94.012 Y107.784 E35.59922
G1 X93.644 Y107.882 E35.61506
G1 X93.287 Y108.05 E35.63146
G1 X92.955 Y108.285 E35.64837
G1 X92.681 Y108.563 E35.6646
G1 X92.464 Y108.873 E35.68033
G1 X92.297 Y109.231 E35.69676
G1 X92.194 Y109.622 E35.71357
G1 X92.162 Y110.002 E35.72942
G1 X92.198 Y110.402 E35.74612
G1 X92.298 Y110.772 E35.76205
G1 X92.466 Y111.129 E35.77846
G1 X92.699 Y111.457 E35.79518
