;FLAVOR:Marlin
;TIME:3011
;Filament used: 1.83134m
;Layer height: 0.2
;MINX:66.75
;MINY:91.25
;MINZ:0.2
;MAXX:153.25
;MAXY:128.75
;MAXZ:19
;Generated with Cura_SteamEngine 4.13.1
M140 S70
M105
M190 S70
M104 S230
M105
M109 S230
M82 ;absolute extrusion mode
; Ender 3 Custom Start G-code
G92 E0 ; Reset Extruder
G28 ; Home all axes
G1 Z2.0 F3000 ; Move Z Axis up little to prevent scratching of Heat Bed
G1 X0.1 Y20 Z0.3 F5000.0 ; Move to start position
G1 X0.1 Y200.0 Z0.3 F1500.0 E15 ; Draw the first line
G1 X0.4 Y200.0 Z0.3 F5000.0 ; Move to side a little
G1 X0.4 Y20 Z0.3 F1500.0 E30 ; Draw the second line
G92 E0 ; Reset Extruder
G1 Z2.0 F3000 ; Move Z Axis up little to prevent scratching of Heat Bed
G1 X5 Y20 Z0.3 F5000.0 ; Move over to prevent blob squish
G92 E0
G92 E0
G1 F1500 E-6.5
;LAYER_COUNT:95
;LAYER:0
M107
G0 F6000 X71.385 Y93.416 Z0.2
;TYPE:SKIRT
G1 F1500 E0
G1 F900 X72.174 Y92.89 E0.03942
G1 X73.005 Y92.433 E0.07885
G1 X73.872 Y92.047 E0.11831
G1 X74.768 Y91.736 E0.15774
G1 X75.687 Y91.501 E0.19718
G1 X76.622 Y91.345 E0.23659
G1 X77.694 Y91.263 E0.28129
G1 X78.015 Y91.254 E0.29464
G1 X78.33 Y91.25 E0.30773
G1 X141.293 Y91.25 E2.92543
G1 X142.152 Y91.261 E2.96115
G1 X143.099 Y91.315 E3.00058
G1 X144.038 Y91.448 E3.04001
G1 X144.963 Y91.66 E3.07947
G1 X145.866 Y91.948 E3.11887
G1 X146.742 Y92.312 E3.15831
G1 X147.584 Y92.749 E3.19775
G1 X148.386 Y93.255 E3.23718
G1 X149.143 Y93.826 E3.2766
G1 X149.849 Y94.46 E3.31605
G1 X150.5 Y95.15 E3.35549
G1 X151.089 Y95.893 E3.39491
G1 X151.614 Y96.683 E3.43434
G1 X152.071 Y97.514 E3.47377
G1 X152.456 Y98.381 E3.51321
G1 X152.767 Y99.277 E3.55264
G1 X153.001 Y100.196 E3.59207
G1 X153.156 Y101.132 E3.63151
G1 X153.237 Y102.193 E3.67575
G1 X153.246 Y102.512 E3.68902
G1 X153.25 Y102.83 E3.70224
G1 X153.248 Y116.931 E4.28849
G1 X153.238 Y117.647 E4.31827
G1 X153.185 Y118.594 E4.3577
G1 X153.052 Y119.533 E4.39713
G1 X152.84 Y120.458 E4.43658
G1 X152.552 Y121.361 E4.47599
G1 X152.188 Y122.237 E4.51543
G1 X151.752 Y123.08 E4.55488
G1 X151.247 Y123.882 E4.59429
G1 X150.675 Y124.639 E4.63373
G1 X150.042 Y125.345 E4.67316
G1 X149.352 Y125.996 E4.7126
G1 X148.609 Y126.586 E4.75204
G1 X147.82 Y127.111 E4.79144
G1 X146.988 Y127.568 E4.83091
G1 X146.122 Y127.953 E4.87031
G1 X145.226 Y128.264 E4.90974
G1 X144.307 Y128.499 E4.94918
G1 X143.371 Y128.655 E4.98863
G1 X142.333 Y128.735 E5.03191
G1 X142.006 Y128.745 E5.04551
G1 X141.662 Y128.75 E5.05982
G1 X78.562 Y128.749 E7.68321
G1 X77.864 Y128.74 E7.71223
G1 X76.917 Y128.688 E7.75166
G1 X75.978 Y128.556 E7.79108
G1 X75.053 Y128.346 E7.83052
G1 X74.149 Y128.058 E7.86997
G1 X73.273 Y127.695 E7.90939
G1 X72.43 Y127.26 E7.94883
G1 X71.627 Y126.755 E7.98827
G1 X70.869 Y126.185 E8.0277
G1 X70.162 Y125.553 E8.06712
G1 X69.511 Y124.863 E8.10656
G1 X68.92 Y124.121 E8.146
G1 X68.394 Y123.332 E8.18542
G1 X67.936 Y122.501 E8.22487
G1 X67.55 Y121.635 E8.26429
G1 X67.238 Y120.739 E8.30374
G1 X67.003 Y119.82 E8.34317
G1 X66.846 Y118.885 E8.38259
G1 X66.763 Y117.795 E8.42804
G1 X66.754 Y117.462 E8.44189
G1 X66.75 Y117.158 E8.45453
G1 X66.751 Y103.022 E9.04223
G1 X66.76 Y102.357 E9.06988
G1 X66.813 Y101.41 E9.10932
G1 X66.945 Y100.471 E9.14874
G1 X67.156 Y99.546 E9.18818
G1 X67.444 Y98.642 E9.22763
G1 X67.808 Y97.766 E9.26707
G1 X68.243 Y96.924 E9.30647
G1 X68.749 Y96.121 E9.34593
G1 X69.32 Y95.364 E9.38535
G1 X69.952 Y94.657 E9.42478
G1 X70.642 Y94.006 E9.46422
G1 X71.385 Y93.416 E9.50366
G0 F6000 X71.866 Y93.687
G1 F900 X72.649 Y93.191 E9.5422
G1 X73.472 Y92.763 E9.58076
G1 X74.328 Y92.409 E9.61928
G1 X75.212 Y92.129 E9.65783
G1 X76.117 Y91.927 E9.69638
G1 X77.036 Y91.803 E9.73493
G1 X77.708 Y91.763 E9.76292
G1 X78.029 Y91.754 E9.77627
G1 X78.33 Y91.75 E9.78879
G1 X141.293 Y91.75 E12.40649
G1 X142.145 Y91.761 E12.44191
G1 X143.071 Y91.814 E12.48047
G1 X143.988 Y91.947 E12.519
G1 X144.891 Y92.159 E12.55756
G1 X145.772 Y92.447 E12.59609
G1 X146.625 Y92.81 E12.63463
G1 X147.444 Y93.246 E12.67321
G1 X148.222 Y93.75 E12.71175
G1 X148.953 Y94.319 E12.75026
G1 X149.633 Y94.95 E12.78883
G1 X150.256 Y95.636 E12.82736
G1 X150.818 Y96.374 E12.86592
G1 X151.314 Y97.157 E12.90446
G1 X151.74 Y97.981 E12.94302
G1 X152.094 Y98.837 E12.98153
G1 X152.373 Y99.722 E13.02011
G1 X152.575 Y100.627 E13.05866
G1 X152.698 Y101.546 E13.09721
G1 X152.737 Y102.207 E13.12474
G1 X152.746 Y102.526 E13.13801
G1 X152.75 Y102.83 E13.15065
G1 X152.748 Y116.924 E13.73661
G1 X152.738 Y117.64 E13.76638
G1 X152.685 Y118.566 E13.80494
G1 X152.553 Y119.483 E13.84346
G1 X152.342 Y120.386 E13.88201
G1 X152.053 Y121.267 E13.92056
G1 X151.691 Y122.121 E13.95912
G1 X151.255 Y122.939 E13.99766
G1 X150.751 Y123.718 E14.03624
G1 X150.182 Y124.449 E14.07475
G1 X149.552 Y125.129 E14.11329
G1 X148.866 Y125.753 E14.15184
G1 X148.128 Y126.315 E14.19041
G1 X147.345 Y126.811 E14.22895
G1 X146.522 Y127.238 E14.26749
G1 X145.665 Y127.592 E14.30604
G1 X144.781 Y127.871 E14.34458
G1 X143.876 Y128.073 E14.38313
G1 X142.957 Y128.196 E14.42168
G1 X142.318 Y128.235 E14.4483
G1 X141.991 Y128.245 E14.4619
G1 X141.662 Y128.25 E14.47558
G1 X78.568 Y128.249 E17.09872
G1 X77.87 Y128.24 E17.12775
G1 X76.945 Y128.188 E17.16626
G1 X76.027 Y128.057 E17.20482
G1 X75.124 Y127.847 E17.24336
G1 X74.242 Y127.56 E17.28192
G1 X73.389 Y127.197 E17.32046
G1 X72.57 Y126.763 E17.359
G1 X71.791 Y126.26 E17.39755
G1 X71.058 Y125.692 E17.4361
G1 X70.378 Y125.062 E17.47464
G1 X69.754 Y124.377 E17.51317
G1 X69.191 Y123.64 E17.55173
G1 X68.694 Y122.857 E17.59028
G1 X68.266 Y122.034 E17.62885
G1 X67.911 Y121.178 E17.66738
G1 X67.631 Y120.294 E17.70593
G1 X67.428 Y119.39 E17.74445
G1 X67.304 Y118.471 E17.783
G1 X67.263 Y117.781 E17.81174
G1 X67.254 Y117.448 E17.82559
G1 X67.25 Y117.158 E17.83765
G1 X67.251 Y103.029 E18.42506
G1 X67.26 Y102.364 E18.45271
G1 X67.312 Y101.438 E18.49127
G1 X67.445 Y100.52 E18.52984
G1 X67.655 Y99.617 E18.56838
G1 X67.943 Y98.736 E18.60692
G1 X68.305 Y97.883 E18.64544
G1 X68.74 Y97.064 E18.684
G1 X69.244 Y96.285 E18.72257
G1 X69.813 Y95.553 E18.76112
G1 X70.443 Y94.873 E18.79966
G1 X71.129 Y94.249 E18.83821
G1 X71.866 Y93.687 E18.87674
G0 F6000 X71.614 Y94.499
G1 F900 X72.346 Y93.966 E18.91439
G1 X73.122 Y93.499 E18.95204
G1 X73.936 Y93.103 E18.98968
G1 X74.781 Y92.78 E19.02729
G1 X75.653 Y92.534 E19.06496
G1 X76.542 Y92.365 E19.10258
G1 X77.722 Y92.263 E19.15182
G1 X78.043 Y92.254 E19.16517
G1 X78.33 Y92.25 E19.1771
G1 X141.293 Y92.25 E21.7948
G1 X142.138 Y92.261 E21.82994
G1 X143.042 Y92.314 E21.86758
G1 X143.937 Y92.446 E21.9052
G1 X144.818 Y92.657 E21.94286
G1 X145.676 Y92.945 E21.98049
G1 X146.506 Y93.308 E22.01815
G1 X147.3 Y93.742 E22.05577
G1 X148.053 Y94.245 E22.09342
G1 X148.759 Y94.812 E22.13107
G1 X149.411 Y95.439 E22.16867
G1 X150.006 Y96.121 E22.2063
G1 X150.539 Y96.853 E22.24395
G1 X151.005 Y97.63 E22.28162
G1 X151.4 Y98.444 E22.31923
G1 X151.722 Y99.29 E22.35687
G1 X151.968 Y100.161 E22.39449
G1 X152.137 Y101.051 E22.43216
G1 X152.237 Y102.221 E22.48098
G1 X152.246 Y102.54 E22.49425
G1 X152.25 Y102.83 E22.5063
G1 X152.248 Y116.917 E23.09197
G1 X152.238 Y117.633 E23.12174
G1 X152.185 Y118.537 E23.15939
G1 X152.053 Y119.433 E23.19705
G1 X151.843 Y120.313 E23.23466
G1 X151.555 Y121.171 E23.27229
G1 X151.193 Y122.001 E23.30993
G1 X150.759 Y122.796 E23.34759
G1 X150.257 Y123.549 E23.38522
G1 X149.69 Y124.255 E23.42286
G1 X149.063 Y124.908 E23.4605
G1 X148.381 Y125.503 E23.49813
G1 X147.649 Y126.036 E23.53577
G1 X146.873 Y126.502 E23.57341
G1 X146.058 Y126.898 E23.61108
G1 X145.212 Y127.22 E23.64871
G1 X144.341 Y127.466 E23.68634
G1 X143.452 Y127.635 E23.72396
G1 X142.302 Y127.735 E23.77195
G1 X141.975 Y127.745 E23.78556
G1 X141.662 Y127.75 E23.79857
G1 X78.575 Y127.749 E26.42142
G1 X77.877 Y127.74 E26.45044
G1 X76.973 Y127.689 E26.48809
G1 X76.077 Y127.557 E26.52574
G1 X75.197 Y127.348 E26.56335
G1 X74.338 Y127.061 E26.601
G1 X73.508 Y126.7 E26.63863
G1 X72.713 Y126.267 E26.67627
G1 X71.959 Y125.765 E26.71393
G1 X71.253 Y125.199 E26.75155
G1 X70.599 Y124.573 E26.78918
G1 X70.003 Y123.891 E26.82684
G1 X69.469 Y123.16 E26.86448
G1 X69.002 Y122.384 E26.90213
G1 X68.606 Y121.57 E26.93977
G1 X68.282 Y120.725 E26.97739
G1 X68.035 Y119.854 E27.01503
G1 X67.865 Y118.965 E27.05266
G1 X67.763 Y117.768 E27.10261
G1 X67.754 Y117.435 E27.11646
G1 X67.75 Y117.158 E27.12797
G1 X67.751 Y103.035 E27.71514
G1 X67.76 Y102.37 E27.74279
G1 X67.812 Y101.466 E27.78044
G1 X67.944 Y100.571 E27.81805
G1 X68.154 Y99.69 E27.8557
G1 X68.441 Y98.832 E27.89332
G1 X68.803 Y98.002 E27.93096
G1 X69.237 Y97.207 E27.96862
G1 X69.739 Y96.454 E28.00624
G1 X70.305 Y95.748 E28.04386
G1 X70.932 Y95.094 E28.08153
G1 X71.614 Y94.499 E28.11916
G1 F1500 E21.61916
;MESH:Soporte_eje.STL
G0 F6000 X77.603 Y102.103
G0 X78.389 Y102.889
G0 X99.856 Y103.998
G0 X99.16 Y107.333
G0 X101.5 Y108.753
;TYPE:WALL-INNER
G1 F1500 E28.11916
G1 F900 X101.89 Y108.718 E28.13544
G1 X102.27 Y108.618 E28.15178
G1 X102.628 Y108.45 E28.16822
G1 X102.948 Y108.225 E28.18448
G1 X103.225 Y107.948 E28.20077
G1 X103.45 Y107.628 E28.21703
G1 X103.618 Y107.27 E28.23347
G1 X103.718 Y106.89 E28.24981
G1 X103.753 Y106.5 E28.26609
G1 X103.718 Y106.11 E28.28237
G1 X103.618 Y105.73 E28.2987
G1 X103.45 Y105.372 E28.31515
G1 X103.225 Y105.052 E28.33141
G1 X102.948 Y104.775 E28.3477
G1 X102.628 Y104.55 E28.36396
G1 X102.27 Y104.382 E28.3804
G1 X101.89 Y104.282 E28.39674
G1 X101.5 Y104.247 E28.41302
G1 X101.11 Y104.282 E28.4293
G1 X100.73 Y104.382 E28.44563
G1 X100.372 Y104.55 E28.46207
G1 X100.052 Y104.775 E28.47834
G1 X99.775 Y105.052 E28.49462
G1 X99.55 Y105.372 E28.51089
G1 X99.382 Y105.73 E28.52733
G1 X99.282 Y106.11 E28.54367
G1 X99.247 Y106.5 E28.55994
G1 X99.282 Y106.89 E28.57622
G1 X99.382 Y107.27 E28.59256
G1 X99.55 Y107.628 E28.609
G1 X99.775 Y107.948 E28.62527
G1 X100.052 Y108.225 E28.64155
G1 X100.372 Y108.45 E28.65782
G1 X100.73 Y108.618 E28.67426
G1 X101.11 Y108.718 E28.69059
G1 X101.5 Y108.753 E28.70687
G0 F6000 X101.5 Y108.251
;TYPE:WALL-OUTER
G1 F900 X101.803 Y108.224 E28.71952
G1 X102.099 Y108.146 E28.73225
G1 X102.376 Y108.016 E28.74497
G1 X102.625 Y107.841 E28.75762
G1 X102.841 Y107.625 E28.77032
G1 X103.016 Y107.376 E28.78297
G1 X103.146 Y107.099 E28.7957
G1 X103.224 Y106.803 E28.80842
G1 X103.251 Y106.5 E28.82107
G1 X103.224 Y106.197 E28.83372
G1 X103.146 Y105.901 E28.84644
G1 X103.016 Y105.624 E28.85916
G1 X102.841 Y105.375 E28.87182
G1 X102.625 Y105.159 E28.88452
G1 X102.376 Y104.984 E28.89717
G1 X102.099 Y104.854 E28.90989
G1 X101.803 Y104.776 E28.92262
G1 X101.5 Y104.749 E28.93527
G1 X101.197 Y104.776 E28.94791
G1 X100.901 Y104.854 E28.96064
G1 X100.624 Y104.984 E28.97336
G1 X100.375 Y105.159 E28.98601
G1 X100.159 Y105.375 E28.99871
G1 X99.984 Y105.624 E29.01137
G1 X99.854 Y105.901 E29.02409
G1 X99.776 Y106.197 E29.03682
G1 X99.749 Y106.5 E29.04946
G1 X99.776 Y106.803 E29.06211
G1 X99.854 Y107.099 E29.07484
G1 X99.984 Y107.376 E29.08756
G1 X100.159 Y107.625 E29.10021
G1 X100.375 Y107.841 E29.11291
G1 X100.624 Y108.016 E29.12556
G1 X100.901 Y108.146 E29.13829
G1 X101.197 Y108.224 E29.15101
G1 X101.5 Y108.251 E29.16366
G0 F6000 X101.5 Y108.801
G0 X104.43 Y107.016
G0 X103.144 Y103.998
G0 X116.856 Y103.998
G0 X116.343 Y107.574
G0 X118.5 Y108.753
;TYPE:WALL-INNER
G1 F900 X118.89 Y108.718 E29.17994
G1 X119.27 Y108.618 E29.19627
G1 X119.628 Y108.45 E29.21272
G1 X119.948 Y108.225 E29.22898
G1 X120.225 Y107.948 E29.24527
G1 X120.45 Y107.628 E29.26153
G1 X120.618 Y107.27 E29.27797
G1 X120.718 Y106.89 E29.29431
G1 X120.753 Y106.5 E29.31059
G1 X120.718 Y106.11 E29.32687
G1 X120.618 Y105.73 E29.3432
G1 X120.45 Y105.372 E29.35964
G1 X120.225 Y105.052 E29.37591
G1 X119.948 Y104.775 E29.39219
G1 X119.628 Y104.55 E29.40846
G1 X119.27 Y104.382 E29.4249
G1 X118.89 Y104.282 E29.44124
G1 X118.5 Y104.247 E29.45751
G1 X118.11 Y104.282 E29.47379
G1 X117.73 Y104.382 E29.49013
G1 X117.372 Y104.55 E29.50657
G1 X117.052 Y104.775 E29.52284
G1 X116.775 Y105.052 E29.53912
G1 X116.55 Y105.372 E29.55539
G1 X116.382 Y105.73 E29.57183
G1 X116.282 Y106.11 E29.58816
G1 X116.247 Y106.5 E29.60444
G1 X116.282 Y106.89 E29.62072
G1 X116.382 Y107.27 E29.63706
G1 X116.55 Y107.628 E29.6535
G1 X116.775 Y107.948 E29.66976
G1 X117.052 Y108.225 E29.68605
G1 X117.372 Y108.45 E29.70231
G1 X117.73 Y108.618 E29.71876
G1 X118.11 Y108.718 E29.73509
G1 X118.5 Y108.753 E29.75137
G0 F6000 X118.5 Y108.251
;TYPE:WALL-OUTER
G1 F900 X118.803 Y108.224 E29.76402
G1 X119.099 Y108.146 E29.77674
G1 X119.376 Y108.016 E29.78947
G1 X119.625 Y107.841 E29.80212
G1 X119.841 Y107.625 E29.81482
G1 X120.016 Y107.376 E29.82747
G1 X120.146 Y107.099 E29.84019
G1 X120.224 Y106.803 E29.85292
G1 X120.251 Y106.5 E29.86557
G1 X120.224 Y106.197 E29.87821
G1 X120.146 Y105.901 E29.89094
G1 X120.016 Y105.624 E29.90366
G1 X119.841 Y105.375 E29.91632
G1 X119.625 Y105.159 E29.92902
G1 X119.376 Y104.984 E29.94167
G1 X119.099 Y104.854 E29.95439
G1 X118.803 Y104.776 E29.96712
G1 X118.5 Y104.749 E29.97976
G1 X118.197 Y104.776 E29.99241
G1 X117.901 Y104.854 E30.00514
G1 X117.624 Y104.984 E30.01786
G1 X117.375 Y105.159 E30.03051
G1 X117.159 Y105.375 E30.04321
G1 X116.984 Y105.624 E30.05587
G1 X116.854 Y105.901 E30.06859
G1 X116.776 Y106.197 E30.08131
G1 X116.749 Y106.5 E30.09396
G1 X116.776 Y106.803 E30.10661
G1 X116.854 Y107.099 E30.11933
G1 X116.984 Y107.376 E30.13206
G1 X117.159 Y107.625 E30.14471
G1 X117.375 Y107.841 E30.15741
G1 X117.624 Y108.016 E30.17006
G1 X117.901 Y108.146 E30.18278
G1 X118.197 Y108.224 E30.19551
G1 X118.5 Y108.251 E30.20816
G0 F6000 X118.5 Y108.801
G1 F1500 E23.70816
G0 F6000 X121.43 Y107.016
G0 X120.144 Y103.998
G0 X138.357 Y103.998
G0 X137.735 Y108.429
G0 X140.516 Y109.443
G0 X140.515 Y110.557
G0 X137.024 Y113.5
G0 X138.356 Y116.001
G0 X120.144 Y116.002
G0 X118.5 Y115.753
;TYPE:WALL-INNER
G1 F1500 E30.20816
G1 F900 X118.89 Y115.718 E30.22444
G1 X119.27 Y115.618 E30.24077
G1 X119.628 Y115.45 E30.25721
G1 X119.948 Y115.225 E30.27348
G1 X120.225 Y114.948 E30.28976
G1 X120.45 Y114.628 E30.30603
G1 X120.618 Y114.27 E30.32247
G1 X120.718 Y113.89 E30.33881
G1 X120.753 Y113.5 E30.35509
G1 X120.718 Y113.11 E30.37136
G1 X120.618 Y112.73 E30.3877
G1 X120.45 Y112.372 E30.40414
G1 X120.225 Y112.052 E30.42041
G1 X119.948 Y111.775 E30.43669
G1 X119.628 Y111.55 E30.45296
G1 X119.27 Y111.382 E30.4694
G1 X118.89 Y111.282 E30.48573
G1 X118.5 Y111.247 E30.50201
G1 X118.11 Y111.282 E30.51829
G1 X117.73 Y111.382 E30.53463
G1 X117.372 Y111.55 E30.55107
G1 X117.052 Y111.775 E30.56733
G1 X116.775 Y112.052 E30.58362
G1 X116.55 Y112.372 E30.59988
G1 X116.382 Y112.73 E30.61633
G1 X116.282 Y113.11 E30.63266
G1 X116.247 Y113.5 E30.64894
G1 X116.282 Y113.89 E30.66522
G1 X116.382 Y114.27 E30.68156
G1 X116.55 Y114.628 E30.698
G1 X116.775 Y114.948 E30.71426
G1 X117.052 Y115.225 E30.73055
G1 X117.372 Y115.45 E30.74681
G1 X117.73 Y115.618 E30.76325
G1 X118.11 Y115.718 E30.77959
G1 X118.5 Y115.753 E30.79587
G0 F6000 X118.5 Y115.251
;TYPE:WALL-OUTER
G1 F900 X118.803 Y115.224 E30.80852
G1 X119.099 Y115.146 E30.82124
G1 X119.376 Y115.016 E30.83396
G1 X119.625 Y114.841 E30.84662
G1 X119.841 Y114.625 E30.85932
G1 X120.016 Y114.376 E30.87197
G1 X120.146 Y114.099 E30.88469
G1 X120.224 Y113.803 E30.89742
G1 X120.251 Y113.5 E30.91007
G1 X120.224 Y113.197 E30.92271
G1 X120.146 Y112.901 E30.93544
G1 X120.016 Y112.624 E30.94816
G1 X119.841 Y112.375 E30.96081
G1 X119.625 Y112.159 E30.97351
G1 X119.376 Y111.984 E30.98617
G1 X119.099 Y111.854 E30.99889
G1 X118.803 Y111.776 E31.01162
G1 X118.5 Y111.749 E31.02426
G1 X118.197 Y111.776 E31.03691
G1 X117.901 Y111.854 E31.04964
G1 X117.624 Y111.984 E31.06236
G1 X117.375 Y112.159 E31.07501
G1 X117.159 Y112.375 E31.08771
G1 X116.984 Y112.624 E31.10036
G1 X116.854 Y112.901 E31.11309
G1 X116.776 Y113.197 E31.12581
G1 X116.749 Y113.5 E31.13846
G1 X116.776 Y113.803 E31.15111
G1 X116.854 Y114.099 E31.16383
G1 X116.984 Y114.376 E31.17655
G1 X117.159 Y114.625 E31.18921
G1 X117.375 Y114.841 E31.20191
G1 X117.624 Y115.016 E31.21456
G1 X117.901 Y115.146 E31.22728
G1 X118.197 Y115.224 E31.24001
G1 X118.5 Y115.251 E31.25266
G0 F6000 X118.5 Y115.801
G0 X116.856 Y116.002
G0 X103.144 Y116.002
G0 X101.5 Y115.753
;TYPE:WALL-INNER
