;FLAVOR:Marlin
;TIME:1103
;Filament used: 0.49817m
;Layer height: 0.2
;MINX:86.406
;MINY:90.402
;MINZ:0.2
;MAXX:133.593
;MAXY:129.6
;MAXZ:16.4
;Generated with Cura_SteamEngine 4.13.1
M140 S70
M105
M190 S70
M104 S230
M105
M109 S230
M82 ;absolute extrusion mode
; Ender 3 Custom Start G-code
G92 E0 ; Reset Extruder
G28 ; Home all axes
G1 Z2.0 F3000 ; Move Z Axis up little to prevent scratching of Heat Bed
G1 X0.1 Y20 Z0.3 F5000.0 ; Move to start position
G1 X0.1 Y200.0 Z0.3 F1500.0 E15 ; Draw the first line
G1 X0.4 Y200.0 Z0.3 F5000.0 ; Move to side a little
G1 X0.4 Y20 Z0.3 F1500.0 E30 ; Draw the second line
G92 E0 ; Reset Extruder
G1 Z2.0 F3000 ; Move Z Axis up little to prevent scratching of Heat Bed
G1 X5 Y20 Z0.3 F5000.0 ; Move over to prevent blob squish
G92 E0
G92 E0
G1 F1500 E-6.5
;LAYER_COUNT:84
;LAYER:0
M107
G0 F6000 X90.311 Y99.011 Z0.2
;TYPE:SKIRT
G1 F1500 E0
G1 F900 X91.055 Y98.422 E0.03945
G1 X91.845 Y97.897 E0.07889
G1 X92.676 Y97.441 E0.1183
G1 X93.544 Y97.057 E0.15776
G1 X94.44 Y96.746 E0.19719
G1 X95.359 Y96.513 E0.2366
G1 X96.061 Y96.389 E0.26624
G1 X97.384 Y96.198 E0.32182
G1 X97.544 Y96.17 E0.32857
G1 X97.931 Y96.118 E0.3448
G1 X100.428 Y95.71 E0.44999
G1 X102.918 Y95.231 E0.55541
G1 X105.304 Y94.702 E0.65702
G1 X107.777 Y94.079 E0.76305
G1 X110.186 Y93.399 E0.86712
G1 X112.595 Y92.646 E0.97205
G1 X114.961 Y91.832 E1.07608
G1 X115.688 Y91.557 E1.10839
G1 X116.97 Y91.091 E1.1651
G1 X117.874 Y90.805 E1.20452
G1 X118.799 Y90.596 E1.24395
G1 X120.134 Y90.435 E1.29985
G1 X120.382 Y90.42 E1.31018
G1 X121.33 Y90.402 E1.3496
G1 X122.277 Y90.465 E1.38906
G1 X123.214 Y90.607 E1.42846
G1 X124.137 Y90.828 E1.46792
G1 X125.037 Y91.125 E1.50732
G1 X125.91 Y91.497 E1.54678
G1 X126.748 Y91.942 E1.58623
G1 X127.545 Y92.455 E1.62563
G1 X127.968 Y92.769 E1.64753
G1 X128.076 Y92.853 E1.65322
G1 X128.631 Y93.313 E1.68319
G1 X129.088 Y93.718 E1.70858
G1 X129.266 Y93.88 E1.71858
G1 X129.974 Y94.535 E1.75868
G1 X130.642 Y95.208 E1.79811
G1 X131.252 Y95.935 E1.83756
G1 X131.798 Y96.71 E1.87698
G1 X132.276 Y97.529 E1.9164
G1 X132.685 Y98.385 E1.95584
G1 X133.019 Y99.273 E1.99529
G1 X133.278 Y100.185 E2.0347
G1 X133.458 Y101.116 E2.07413
G1 X133.577 Y102.407 E2.12803
G1 X133.586 Y102.669 E2.13893
G1 X133.593 Y103.054 E2.15494
G1 X133.593 Y116.764 E2.72493
G1 X133.583 Y117.484 E2.75487
G1 X133.53 Y118.431 E2.7943
G1 X133.397 Y119.37 E2.83373
G1 X133.186 Y120.295 E2.87318
G1 X132.897 Y121.199 E2.91263
G1 X132.534 Y122.075 E2.95206
G1 X132.098 Y122.917 E2.99148
G1 X131.592 Y123.719 E3.0309
G1 X131.021 Y124.477 E3.07036
G1 X130.388 Y125.183 E3.10978
G1 X129.448 Y126.043 E3.16275
G1 X128.808 Y126.564 E3.19706
G1 X128.407 Y126.879 E3.21826
G1 X127.873 Y127.288 E3.24622
G1 X127.096 Y127.833 E3.28568
G1 X126.276 Y128.31 E3.32512
G1 X125.419 Y128.716 E3.36455
G1 X124.531 Y129.049 E3.40398
G1 X123.618 Y129.306 E3.44341
G1 X122.687 Y129.485 E3.48283
G1 X121.743 Y129.584 E3.52229
G1 X120.638 Y129.6 E3.56823
G1 X120.438 Y129.593 E3.57655
G1 X119.493 Y129.52 E3.61596
G1 X118.557 Y129.368 E3.65538
G1 X117.637 Y129.137 E3.69482
G1 X116.877 Y128.882 E3.72815
G1 X115.999 Y128.552 E3.76714
G1 X113.591 Y127.687 E3.87352
G1 X111.219 Y126.91 E3.97729
G1 X108.802 Y126.192 E4.08212
G1 X106.38 Y125.547 E4.18633
G1 X103.887 Y124.957 E4.29284
G1 X101.487 Y124.463 E4.39471
G1 X99.006 Y124.024 E4.49946
G1 X96.656 Y123.683 E4.59818
G1 X96.085 Y123.593 E4.62222
G1 X95.156 Y123.406 E4.66161
G1 X94.245 Y123.141 E4.70106
G1 X93.36 Y122.801 E4.74047
G1 X92.506 Y122.387 E4.77993
G1 X91.691 Y121.903 E4.81934
G1 X90.919 Y121.351 E4.8588
G1 X89.933 Y120.486 E4.91333
G1 X89.776 Y120.331 E4.9225
G1 X89.13 Y119.637 E4.96192
G1 X88.544 Y118.89 E5.00139
G1 X88.024 Y118.098 E5.04078
G1 X87.572 Y117.264 E5.08022
G1 X87.192 Y116.395 E5.11965
G1 X86.886 Y115.497 E5.1591
G1 X86.658 Y114.576 E5.19854
G1 X86.507 Y113.64 E5.23796
G1 X86.433 Y112.576 E5.2823
G1 X86.409 Y111.499 E5.32709
G1 X86.406 Y111.248 E5.33753
G1 X86.406 Y108.092 E5.46874
G1 X86.417 Y107.356 E5.49934
G1 X86.471 Y106.409 E5.53878
G1 X86.605 Y105.47 E5.57821
G1 X86.817 Y104.546 E5.61762
G1 X87.107 Y103.642 E5.65709
G1 X87.471 Y102.767 E5.6965
G1 X87.908 Y101.925 E5.73594
G1 X88.415 Y101.123 E5.77538
G1 X88.987 Y100.366 E5.81483
G1 X89.62 Y99.661 E5.85422
G1 X90.311 Y99.011 E5.89366
G0 F6000 X90.797 Y99.255
G1 F900 X91.535 Y98.693 E5.93223
G1 X92.319 Y98.198 E5.97078
G1 X93.143 Y97.772 E6.00934
G1 X94 Y97.419 E6.04788
G1 X94.884 Y97.14 E6.08642
G1 X96.133 Y96.884 E6.13942
G1 X97.248 Y96.723 E6.18626
G1 X97.611 Y96.665 E6.20154
G1 X98.042 Y96.607 E6.21962
G1 X100.498 Y96.206 E6.32308
G1 X103.016 Y95.722 E6.42969
G1 X105.422 Y95.187 E6.53216
G1 X107.897 Y94.565 E6.63826
G1 X110.325 Y93.88 E6.74314
G1 X112.77 Y93.115 E6.84965
G1 X115.105 Y92.311 E6.95232
G1 X115.859 Y92.027 E6.98582
G1 X117.141 Y91.561 E7.04253
G1 X118.025 Y91.282 E7.08107
G1 X118.93 Y91.08 E7.11962
G1 X120.164 Y90.934 E7.17129
G1 X120.412 Y90.919 E7.18162
G1 X121.339 Y90.903 E7.22016
G1 X122.264 Y90.967 E7.25871
G1 X123.18 Y91.11 E7.29725
G1 X124.08 Y91.332 E7.33579
G1 X124.958 Y91.63 E7.37434
G1 X125.807 Y92.003 E7.4129
G1 X126.62 Y92.448 E7.45143
G1 X127.661 Y93.163 E7.50393
G1 X127.769 Y93.247 E7.50962
G1 X128.299 Y93.688 E7.53829
G1 X128.756 Y94.093 E7.56367
G1 X128.926 Y94.247 E7.57321
G1 X129.634 Y94.902 E7.61331
G1 X130.287 Y95.56 E7.65185
G1 X130.881 Y96.273 E7.69043
G1 X131.411 Y97.033 E7.72896
G1 X131.873 Y97.837 E7.76751
G1 X132.265 Y98.677 E7.80605
G1 X132.583 Y99.548 E7.8446
G1 X132.824 Y100.443 E7.88313
G1 X132.988 Y101.356 E7.9217
G1 X133.078 Y102.424 E7.96626
G1 X133.087 Y102.686 E7.97716
G1 X133.093 Y103.054 E7.99246
G1 X133.093 Y116.757 E8.56216
G1 X133.083 Y117.477 E8.5921
G1 X133.03 Y118.403 E8.63066
G1 X132.898 Y119.321 E8.66922
G1 X132.687 Y120.223 E8.70773
G1 X132.399 Y121.105 E8.74631
G1 X132.036 Y121.958 E8.78485
G1 X131.601 Y122.777 E8.8234
G1 X131.097 Y123.555 E8.86194
G1 X130.528 Y124.287 E8.90049
G1 X129.898 Y124.967 E8.93903
G1 X129.132 Y125.655 E8.98183
G1 X128.498 Y126.171 E9.01582
G1 X128.103 Y126.482 E9.03672
G1 X127.569 Y126.891 E9.06469
G1 X126.809 Y127.423 E9.10326
G1 X126.006 Y127.887 E9.14181
G1 X125.167 Y128.28 E9.18033
G1 X124.296 Y128.599 E9.2189
G1 X123.402 Y128.843 E9.25742
G1 X122.489 Y129.008 E9.296
G1 X121.566 Y129.094 E9.33454
G1 X120.656 Y129.1 E9.37237
G1 X120.456 Y129.093 E9.38069
G1 X119.532 Y129.021 E9.41922
G1 X118.617 Y128.869 E9.45779
G1 X117.719 Y128.639 E9.49633
G1 X117.053 Y128.414 E9.52555
G1 X116.207 Y128.096 E9.56313
G1 X113.737 Y127.209 E9.67224
G1 X111.38 Y126.436 E9.77537
G1 X108.927 Y125.708 E9.88175
G1 X106.486 Y125.058 E9.98677
G1 X103.998 Y124.469 E10.09307
G1 X101.605 Y123.977 E10.19464
G1 X99.098 Y123.533 E10.30049
G1 X96.734 Y123.189 E10.39981
G1 X96.163 Y123.099 E10.42384
G1 X95.255 Y122.915 E10.46236
G1 X94.365 Y122.654 E10.50092
G1 X93.501 Y122.317 E10.53947
G1 X92.67 Y121.907 E10.578
G1 X91.877 Y121.426 E10.61656
G1 X91.128 Y120.88 E10.65509
G1 X90.284 Y120.13 E10.70204
G1 X90.127 Y119.975 E10.71121
G1 X89.496 Y119.296 E10.74975
G1 X88.926 Y118.565 E10.78828
G1 X88.421 Y117.787 E10.82685
G1 X87.985 Y116.969 E10.86538
G1 X87.621 Y116.116 E10.90394
G1 X87.332 Y115.236 E10.94245
G1 X87.119 Y114.333 E10.98102
G1 X86.985 Y113.416 E11.01955
G1 X86.933 Y112.564 E11.05504
G1 X86.909 Y111.487 E11.09983
G1 X86.906 Y111.248 E11.10977
G1 X86.906 Y108.099 E11.24069
G1 X86.917 Y107.363 E11.27129
G1 X86.971 Y106.438 E11.30981
G1 X87.104 Y105.52 E11.34838
G1 X87.316 Y104.618 E11.3869
G1 X87.605 Y103.737 E11.42545
G1 X87.969 Y102.884 E11.464
G1 X88.405 Y102.066 E11.50254
G1 X88.91 Y101.288 E11.5411
G1 X89.48 Y100.557 E11.57964
G1 X90.11 Y99.877 E11.61818
G1 X90.797 Y99.255 E11.65671
G0 F6000 X91.282 Y99.505
G1 F900 X92.015 Y98.973 E11.69437
G1 X92.791 Y98.507 E11.732
G1 X93.606 Y98.112 E11.76965
G1 X94.452 Y97.791 E11.80727
G1 X95.324 Y97.545 E11.84494
G1 X96.204 Y97.379 E11.88217
G1 X97.538 Y97.187 E11.9382
G1 X97.677 Y97.161 E11.94408
G1 X98.089 Y97.106 E11.96136
G1 X100.597 Y96.696 E12.06702
G1 X103.114 Y96.212 E12.17358
G1 X105.548 Y95.672 E12.27724
G1 X108.018 Y95.05 E12.38313
G1 X110.506 Y94.348 E12.49061
G1 X112.892 Y93.601 E12.59456
G1 X115.286 Y92.778 E12.6998
G1 X116.029 Y92.497 E12.73283
G1 X117.311 Y92.031 E12.78954
G1 X118.175 Y91.759 E12.8272
G1 X119.059 Y91.565 E12.86483
G1 X120.194 Y91.433 E12.91233
G1 X120.442 Y91.418 E12.92266
G1 X121.347 Y91.403 E12.96029
G1 X122.25 Y91.468 E12.99793
G1 X123.144 Y91.613 E13.03559
G1 X124.021 Y91.836 E13.07321
G1 X124.876 Y92.135 E13.11087
G1 X125.7 Y92.509 E13.14849
G1 X126.489 Y92.954 E13.18615
G1 X127.354 Y93.558 E13.23001
G1 X127.462 Y93.642 E13.2357
G1 X127.967 Y94.062 E13.26301
G1 X128.587 Y94.614 E13.29752
G1 X129.295 Y95.269 E13.33762
G1 X129.932 Y95.913 E13.37528
G1 X130.509 Y96.61 E13.4129
G1 X131.023 Y97.355 E13.45053
G1 X131.469 Y98.143 E13.48817
G1 X131.843 Y98.967 E13.52579
G1 X132.144 Y99.821 E13.56344
G1 X132.368 Y100.698 E13.60107
G1 X132.513 Y101.592 E13.63873
G1 X132.578 Y102.441 E13.67413
G1 X132.587 Y102.703 E13.68503
G1 X132.593 Y103.054 E13.69962
G1 X132.593 Y116.75 E14.26903
G1 X132.583 Y117.47 E14.29897
G1 X132.53 Y118.374 E14.33662
G1 X132.398 Y119.27 E14.37427
G1 X132.188 Y120.15 E14.41189
G1 X131.9 Y121.009 E14.44955
G1 X131.538 Y121.838 E14.48716
G1 X131.104 Y122.633 E14.52482
G1 X130.602 Y123.386 E14.56244
G1 X130.035 Y124.092 E14.60009
G1 X129.408 Y124.745 E14.63773
G1 X128.816 Y125.268 E14.67057
G1 X128.188 Y125.779 E14.70423
G1 X127.799 Y126.085 E14.72481
G1 X127.265 Y126.494 E14.75277
G1 X126.522 Y127.013 E14.79045
G1 X125.737 Y127.463 E14.82807
G1 X124.915 Y127.843 E14.86572
G1 X124.063 Y128.149 E14.90336
G1 X123.187 Y128.378 E14.941
G1 X122.295 Y128.529 E14.97861
G1 X121.392 Y128.601 E15.01627
G1 X120.673 Y128.601 E15.04617
G1 X120.473 Y128.594 E15.05449
G1 X119.571 Y128.522 E15.09211
G1 X118.678 Y128.371 E15.12976
G1 X117.802 Y128.142 E15.1674
G1 X117.228 Y127.946 E15.19262
G1 X116.33 Y127.609 E15.2325
G1 X113.914 Y126.741 E15.33923
G1 X111.508 Y125.952 E15.4445
G1 X109.084 Y125.233 E15.54962
G1 X106.592 Y124.569 E15.65684
G1 X104.149 Y123.991 E15.76121
G1 X101.646 Y123.476 E15.86745
G1 X99.191 Y123.041 E15.97111
G1 X96.812 Y122.695 E16.07106
G1 X96.241 Y122.605 E16.09509
G1 X95.354 Y122.425 E16.13272
G1 X94.486 Y122.167 E16.17037
G1 X93.644 Y121.833 E16.20803
G1 X92.835 Y121.427 E16.24566
G1 X92.066 Y120.951 E16.28326
G1 X91.341 Y120.408 E16.32092
G1 X90.636 Y119.774 E16.36034
G1 X90.479 Y119.619 E16.36951
G1 X89.863 Y118.955 E16.40717
G1 X89.309 Y118.24 E16.44477
G1 X88.819 Y117.478 E16.48244
G1 X88.399 Y116.676 E16.52008
G1 X88.052 Y115.84 E16.55771
G1 X87.779 Y114.977 E16.59534
G1 X87.584 Y114.093 E16.63298
G1 X87.467 Y113.195 E16.67063
G1 X87.433 Y112.553 E16.69735
G1 X87.409 Y111.476 E16.74214
G1 X87.406 Y111.248 E16.75162
G1 X87.406 Y108.107 E16.88221
G1 X87.417 Y107.371 E16.91281
G1 X87.471 Y106.467 E16.95046
G1 X87.604 Y105.572 E16.98808
G1 X87.815 Y104.691 E17.02575
G1 X88.104 Y103.833 E17.06339
G1 X88.467 Y103.004 E17.10101
G1 X88.901 Y102.21 E17.13863
G1 X89.404 Y101.457 E17.17628
G1 X89.972 Y100.752 E17.21392
G1 X90.6 Y100.099 E17.25159
G1 X91.282 Y99.505 E17.28919
G1 F1500 E10.78919
G0 F6000 X98.404 Y107.846
G0 X98.404 Y108.262
G1 F1500 E17.28919
G1 F900 X102.953 Y108.261 E17.47831
G1 X115.436 Y108.266 E17.9973
G1 X115.75 Y108.198 E18.01065
G1 X116.203 Y107.99 E18.03138
G1 X116.46 Y107.796 E18.04476
G1 X117.818 Y106.209 E18.1316
G1 X117.997 Y106.014 E18.14261
G1 X119.183 Y104.638 E18.21813
G1 X119.35 Y104.481 E18.22766
G1 X119.987 Y103.745 E18.26813
G1 X120.995 Y102.605 E18.3314
G1 X121.594 Y103.123 E18.36432
G1 X121.594 Y106.689 E18.51258
G1 X119.865 Y106.697 E18.58446
G1 X119.624 Y106.738 E18.59463
G1 X119.409 Y106.854 E18.60478
G1 X119.243 Y107.033 E18.61493
G1 X119.125 Y107.343 E18.62872
G1 X118.913 Y108.854 E18.69216
G1 X118.919 Y109.098 E18.7023
G1 X118.984 Y109.291 E18.71077
G1 X119.329 Y109.987 E18.74307
G1 X119.339 Y110.001 E18.74378
G1 X118.986 Y110.681 E18.77564
G1 X118.911 Y110.913 E18.78577
G1 X118.909 Y111.131 E18.79484
G1 X119.124 Y112.656 E18.85887
G1 X119.197 Y112.889 E18.86902
G1 X119.341 Y113.086 E18.87916
G1 X119.541 Y113.226 E18.88931
G1 X119.86 Y113.301 E18.90294
G1 X121.594 Y113.317 E18.97503
G1 X121.594 Y116.97 E19.1269
G1 X121.018 Y117.426 E19.15745
G1 X120.648 Y116.994 E19.1811
G1 X120.419 Y116.757 E19.1948
G1 X119.358 Y115.52 E19.26255
G1 X119.233 Y115.399 E19.26978
G1 X118.125 Y114.094 E19.34096
G1 X118.082 Y114.047 E19.34361
G1 X117.777 Y113.744 E19.36148
G1 X116.497 Y112.213 E19.44445
G1 X116.239 Y112.014 E19.45799
G1 X115.788 Y111.804 E19.47868
G1 X115.471 Y111.734 E19.49217
G1 X98.407 Y111.739 E20.20161
G1 X98.404 Y108.262 E20.34617
G0 F6000 X97.904 Y108.311
G1 F900 X97.906 Y107.763 E20.36895
G1 X102.954 Y107.761 E20.57882
G1 X115.437 Y107.766 E21.09781
G1 X115.541 Y107.743 E21.10224
G1 X115.994 Y107.535 E21.12296
G1 X116.08 Y107.471 E21.12742
G1 X117.438 Y105.884 E21.21426
G1 X117.618 Y105.687 E21.22535
G1 X118.824 Y104.287 E21.30217
G1 X118.972 Y104.154 E21.31045
G1 X119.612 Y103.414 E21.35112
G1 X120.959 Y101.89 E21.43568
G1 X121.015 Y101.919 E21.43831
G1 X121.311 Y102.217 E21.45577
G1 X121.916 Y102.74 E21.48902
G1 X122.094 Y102.9 E21.49897
G1 X122.094 Y107.196 E21.67757
G1 X122.03 Y107.187 E21.68026
G1 X119.867 Y107.197 E21.77019
G1 X119.733 Y107.237 E21.776
G1 X119.62 Y107.412 E21.78466
G1 X119.408 Y108.923 E21.8481
G1 X119.432 Y109.069 E21.85425
G1 X119.777 Y109.765 E21.88655
G1 X119.88 Y109.873 E21.89275
G1 X120.101 Y109.995 E21.90325
G1 X119.901 Y110.1 E21.91264
G1 X119.795 Y110.207 E21.9189
G1 X119.43 Y110.911 E21.95187
G1 X119.404 Y111.061 E21.9582
G1 X119.619 Y112.586 E22.02223
G1 X119.677 Y112.714 E22.02807
G1 X119.865 Y112.801 E22.03668
G1 X122.018 Y112.821 E22.1262
G1 X122.094 Y112.799 E22.12949
G1 X122.094 Y117.212 E22.31296
G1 X120.953 Y118.114 E22.37343
G1 X120.948 Y118.114 E22.37364
G1 X120.268 Y117.319 E22.41713
G1 X120.053 Y117.097 E22.42998
G1 X118.979 Y115.845 E22.49856
G1 X118.877 Y115.751 E22.50433
G1 X117.744 Y114.417 E22.57709
G1 X117.415 Y114.09 E22.59638
G1 X116.114 Y112.534 E22.6807
G1 X116.028 Y112.467 E22.68523
G1 X115.577 Y112.257 E22.70592
G1 X115.471 Y112.234 E22.71043
G1 X97.933 Y112.239 E23.43957
G1 X97.908 Y112.213 E23.44107
G1 X97.904 Y108.311 E23.6033
G1 F1500 E17.1033
G0 F6000 X97.999 Y107.858
G0 X120.958 Y102.039
G0 X122.005 Y102.934
G0 X121.997 Y107.09
G0 X119.568 Y107.103
G0 X119.701 Y109.573
G0 X121.813 Y109.997
G1 F1500 E23.6033
G1 F900 X122.094 Y109.801 E23.61754
G1 X122.094 Y110.199 E23.63409
G1 X121.813 Y109.997 E23.64848
G1 F1500 E17.14848
G0 F6000 X118.777 Y109.998
;TYPE:SUPPORT
G1 F1500 E23.64848
G1 F900 X118.358 Y110.805 E23.68628
G1 X118.78 Y113.791 E23.81166
G1 X121.094 Y113.813 E23.90787
G1 X121.094 Y116.728 E24.02906
G1 X120.888 Y116.53 E24.04094
G1 X120.809 Y116.442 E24.04585
G1 X119.684 Y115.132 E24.11764
G1 X119.593 Y115.051 E24.12271
G1 X118.472 Y113.73 E24.19474
G1 X118.146 Y113.405 E24.21388
G1 X116.702 Y111.679 E24.30744
G1 X115.747 Y111.234 E24.35124
G1 X98.906 Y111.239 E25.05141
G1 X98.905 Y108.762 E25.15439
G1 X102.955 Y108.761 E25.32277
G1 X115.711 Y108.766 E25.8531
G1 X116.661 Y108.329 E25.89658
G1 X118.187 Y106.547 E25.99412
G1 X118.363 Y106.355 E26.00494
G1 X119.54 Y104.989 E26.07991
G1 X119.673 Y104.873 E26.08725
G1 X120.361 Y104.076 E26.13102
G1 X121.042 Y103.306 E26.17376
G1 X121.094 Y103.351 E26.17662
G1 X121.094 Y106.191 E26.29469
G1 X118.78 Y106.202 E26.3909
G1 X118.365 Y109.167 E26.51537
G1 X118.777 Y109.998 E26.55393
G0 F6000 X118.216 Y109.993
G1 F900 X117.841 Y110.717 E26.58783
G1 X118.103 Y112.575 E26.66584
G1 X117.014 Y111.273 E26.73641
G1 X115.858 Y110.734 E26.78944
G1 X99.406 Y110.739 E27.47343
G1 X99.405 Y109.262 E27.53484
G1 X102.955 Y109.261 E27.68243
G1 X115.821 Y109.266 E28.21734
G1 X116.97 Y108.737 E28.26993
G1 X118.106 Y107.41 E28.34255
G1 X117.848 Y109.251 E28.41984
G1 X118.216 Y109.993 E28.45427
G1 F1500 E21.95427
G0 F6000 X119.483 Y109.365
G0 X120.037 Y108.091
G0 X120.601 Y107.108
G0 X120.594 Y105.693
G1 F1500 E28.45427
